routes.svg

<svg fill="currentColor" viewBox="0 0 24 24"><path d="M11 10H5L3 8l2-2h6V3l1-1 1 1v1h6l2 2-2 2h-6v2h6l2 2-2 2h-6v6a2 2 0 0 1 2 2H9a2 2 0 0 1 2-2z"/></svg>

<svg  viewBox="0 0 24 24" fill="currentColor"><path  d="M11,10H5L3,8L5,6H11V3L12,2L13,3V4H19L21,6L19,8H13V10H19L21,12L19,14H13V20A2,2 0 0,1 15,22H9A2,2 0 0,1 11,20V10Z"/></svg>
